X: 78
T: June Ni Chormaic's
M: 2/2
L: 1/8
R: Reel
Z:Robert Greenway, 24/11/1998
K: D
d~A3 AGFE|D2BD ADFA|B~E3 (3Bcd ef|g2fg eafe|
d~A3 AGFE|D2BD ADFA|B~E3 (3Bcd eg|fgfe d2 (3ABc:|
|:d~A3 AGFG|A2af gfed|Beed ~e3f|g2fg eafe|
d~A3 AGFG|A2af gfef|defd B2dB|AFAB d2 (3ABc:|

